X: 21786
T: King's Fancy, The
R: jig
M: 6/8
K: Dmajor
|:e|fdd dcd|Bgg Aff|gfe fed|cBA a2 g|
fdd dcd|Bgg Aff|gfe fed|cBc d2:|
K: Bmin
|:e|fdB BAB|fdB Bcd|cAF FEF|f2 f edc|
fdB BAB|fdB Bcd|cBA f2 f|edc B2:|

